X:3
T: Browned Bread
M:4/4
L:1/4
K:D
Q:1/4 = 225
|"Dmaj"fefg|"Amaj"f2 e2|"Bm"edef|"Amaj"e2d2|
|"Gmaj"dcBF|"F#m"Aade|"Em7"fz3|"A7"z4|
|"Dmaj"fefg|"Amaj"f2 e2|"Bm"edef|"Amaj"e2d2|
|"Gmaj"dcBF|"F#m"A2"F#sus4"c2|"Dmaj"d4|z4|
```

Input: Please compose a piece of music with the themes of the sky, flora, freshness, and the cosmos in mind. Envision background music for a game that instantly fills the listener with courage and excitement upon hearing it. The more complex and pleasing the chord progression, the better.
The piano music you generate with following the steps:
```abc
